svg/home-sec2-1.svg

<svg width="174" height="208" viewBox="0 0 174 208" fill="none" xmlns="http://www.w3.org/2000/svg">
<path d="M55.5978 72.2484V142.075" stroke="#4D4D4D" stroke-width="3" stroke-linecap="round"/>
<path d="M53.1477 75.311C70.7874 75.311 88.8139 74.2096 106.436 75.311C106.897 75.3398 106.351 78.1822 106.3 78.6458C105.602 85.0186 105.824 91.4346 105.824 97.8379C105.824 103.741 105.81 109.58 106.3 115.465C106.65 119.664 107.861 123.683 108.24 127.851C108.695 132.858 107.667 137.773 109.193 142.653C109.989 145.202 101.418 143.673 100.209 143.572C93.311 142.997 86.4679 141.804 79.5538 141.462C72.5718 141.118 65.6454 140.85 58.6603 140.85" stroke="#4D4D4D" stroke-width="3" stroke-linecap="round"/>
<path d="M54.3727 72.861C54.8765 67.8225 62.1352 65.9111 64.1729 61.8358" stroke="#4D4D4D" stroke-width="3" stroke-linecap="round"/>
<path d="M105.824 73.4736C106.29 71.9197 109.03 70.6191 110.111 69.3221C111.058 68.1863 112.13 67.1677 113.174 66.1234" stroke="#4D4D4D" stroke-width="3" stroke-linecap="round"/>
<path d="M62.3353 62.4482H110.724" stroke="#4D4D4D" stroke-width="3" stroke-linecap="round"/>
<path d="M108.274 143.3C108.274 142.078 107.982 140.421 108.342 139.25C108.863 137.557 111.153 135.76 111.336 134.112C111.697 130.867 114.426 127.028 116.236 124.312" stroke="#4D4D4D" stroke-width="3" stroke-linecap="round"/>
<path d="M114.399 69.7985C114.399 83.1603 114.399 96.5221 114.399 109.884C114.399 113.979 114.399 118.073 114.399 122.168C114.399 123.777 115.771 128.134 116.849 129.212" stroke="#4D4D4D" stroke-width="3" stroke-linecap="round"/>
<path d="M76.1505 110.21C76.1505 107.182 76.4266 105.038 79.1517 103.29C83.1462 100.727 89.5822 100.924 91.2803 106.018C92.034 108.279 92.6238 111.815 91.3547 113.98C90.0502 116.205 88.2071 118.533 85.526 119.04C80.4408 120 75.4808 113.855 75.4808 109.094" stroke="#4D4D4D" stroke-width="3" stroke-linecap="round"/>
<path d="M76.597 98.3788C75.6474 95.9618 73.6083 93.8181 72.1325 91.682C71.3249 90.5132 70.3415 89.4433 69.4537 88.3336" stroke="#4D4D4D" stroke-width="3" stroke-linecap="round"/>
<path d="M70.5698 100.834C69.1649 100.834 67.9245 100.722 66.5518 100.437C64.5389 100.02 62.6459 98.6021 60.5247 98.6021" stroke="#4D4D4D" stroke-width="3" stroke-linecap="round"/>
<path d="M62.757 111.996C64.2379 111.996 66.2731 112.33 67.6679 111.772" stroke="#4D4D4D" stroke-width="3" stroke-linecap="round"/>
<path d="M65.6588 124.72C65.801 123.44 69.0014 122.073 69.8505 121.371C70.7006 120.669 71.7745 119.902 72.4548 119.027C72.8069 118.575 72.9246 118.073 73.4717 117.8" stroke="#4D4D4D" stroke-width="3" stroke-linecap="round"/>
<path d="M78.1595 122.71V127.398" stroke="#4D4D4D" stroke-width="3" stroke-linecap="round"/>
<path d="M87.535 123.827C87.7142 124.991 88.6085 125.957 89.0976 127.001C89.5436 127.954 90.0076 128.894 90.437 129.854C90.9619 131.027 91.3695 132.428 91.7763 133.649" stroke="#4D4D4D" stroke-width="3" stroke-linecap="round"/>
<path d="M91.9995 119.139C94.2363 119.387 96.3033 121.96 98.2498 122.934" stroke="#4D4D4D" stroke-width="3" stroke-linecap="round"/>
<path d="M95.5712 109.54C97.9218 109.54 100.503 109.763 102.714 109.763" stroke="#4D4D4D" stroke-width="3" stroke-linecap="round"/>
<path d="M92.2228 100.611C93.3497 100.486 95.0611 99.1983 96.0672 98.6021C96.7369 98.2053 97.5302 97.7259 98.2499 97.486" stroke="#4D4D4D" stroke-width="3" stroke-linecap="round"/>
<path d="M84.4099 84.3156V97.4859" stroke="#4D4D4D" stroke-width="3" stroke-linecap="round"/>
<path d="M95.9789 39.0171C95.9789 37.7544 96.4256 36.8069 97.1731 35.7639C98.7839 33.5162 100.647 31.3005 102.444 29.1958C105.474 25.6467 108.277 21.572 111.565 18.2833C112.691 17.158 114.862 15.2886 115.23 13.63C115.566 12.117 116.039 16.5973 116.074 16.9449C116.42 20.3652 117.354 23.7436 118.01 27.1162C118.946 31.932 118.957 36.715 118.957 41.6113C118.957 47.5229 125.807 45.0956 129.211 43.9174C132.625 42.7355 135.675 40.9659 139.197 39.9436C143.674 38.6436 148.084 36.671 152.497 35.105C155.349 34.0931 158.145 32.3762 161.186 31.996C162.865 31.7861 161.325 32.5953 160.754 33.2519C158.845 35.4449 157.07 37.7987 155.092 39.923C152.307 42.9141 149.297 45.6298 146.465 48.5707C144.761 50.3403 144.021 53.1428 142.306 54.9534C139.856 57.5391 138.229 60.7551 138.229 64.2188C138.229 66.0922 143.828 67.3396 145.25 67.9249C149.413 69.639 153.497 71.4623 157.624 73.2782C160.497 74.5424 163.169 75.2061 166.375 75.8931C168.086 76.2599 169.822 76.8197 171.584 76.8197C172.357 76.8197 172.494 77.2671 171.708 77.5815C166.355 79.7224 161.387 83.0323 155.812 84.6025C153.137 85.3563 149.357 87.1294 147.329 89.0499C146.12 90.1958 145.097 90.8293 144.612 92.4678C144.048 94.369 144.052 96.8388 144.447 98.7682C144.817 100.576 145.596 101.551 146.382 102.927C147.646 105.139 149.923 107.59 151.571 109.598C156.363 115.438 162.74 118.422 170.266 119.79C170.82 119.891 171.271 120.09 171.769 120.367C172.573 120.813 168.163 120.547 167.507 120.552C163.014 120.587 158.539 120.923 154.042 120.923C151.807 120.923 149.613 120.828 147.412 121.211C143.912 121.82 139.315 122.298 136.376 124.258" stroke="#4D4D4D" stroke-width="3" stroke-linecap="round"/>
<path d="M135.264 124.629C135.264 126.362 134.152 128.261 134.152 130.209C134.152 134.427 136.615 138.553 139.052 141.965C143.142 147.691 148.694 151.965 153.239 157.243C155.411 159.765 158.102 162.178 160.672 164.305C161.798 165.238 165.387 167.249 163.925 167.249C161.09 167.249 157.55 165.707 154.824 164.943C150.588 163.757 146.534 161.915 142.306 160.661C137.908 159.356 130.733 157.403 126.575 160.29C123.568 162.379 122.044 164.264 121.366 168.032C119.935 175.979 120.439 184.381 120.439 192.431C120.439 196.863 122.292 201.11 122.292 205.423C122.292 206.766 122.266 204.741 122.087 204.331C121.026 201.907 118.99 199.737 117.68 197.434C116.425 195.226 115.585 192.816 114.345 190.598C112.524 187.34 110.312 184.211 108.209 181.127C105.797 177.59 102.194 175.207 98.9438 172.52C96.1689 170.226 92.4625 169.255 88.9372 168.814C84.793 168.296 81.5675 169.59 78.107 171.779C71.6976 175.834 65.7158 178.737 61.3471 185.224C57.1675 191.43 53.7611 197.895 50.2286 204.455C50.0486 204.789 48.9653 205.676 48.9109 204.97C48.6818 201.991 47.2176 199.101 46.6872 196.157C45.2926 188.417 44.609 180.025 41.7869 172.644C39.8531 167.586 32.5249 166.879 27.7859 166.879C24.1217 166.879 21.0121 167.274 17.4293 167.991C14.9415 168.488 7.49673 169.654 9.85233 168.711C11.4267 168.082 13.5614 165.341 14.8144 164.202C17.6389 161.634 20.579 158.887 23.0503 155.966C26.6504 151.712 29.1859 146.877 29.2684 141.101C29.3632 134.46 24.9176 129.678 18.6647 128.52C16.0718 128.04 13.2925 128.196 10.6553 127.882C7.86889 127.55 4.9914 127.016 2.21357 126.853C1.1494 126.79 4.35416 126.826 5.40497 126.647C8.80553 126.066 11.869 124.694 14.9997 123.352C18.1943 121.983 21.036 120.688 23.9151 118.699C26.6079 116.839 27.9666 112.916 29.1037 110.051C30.4247 106.723 30.8636 103.432 30.7508 99.8801C30.6654 97.189 27.9351 94.7706 26.3035 92.8384C23.3067 89.2897 18.4989 86.6401 14.7938 83.8613C13.304 82.7439 11.6435 81.8686 10.1818 80.7317C9.62259 80.2968 11.1854 81.8804 12.0554 82.1936C17.7689 84.2504 24.1364 82.3873 28.2389 78.2198C31.0053 75.4095 34.1706 72.5048 36.5983 69.4074C37.2058 68.6322 37.6808 67.9808 38.5337 67.5543" stroke="#4D4D4D" stroke-width="3" stroke-linecap="round"/>
<path d="M37.2453 68.5338C37.8546 68.5338 38.6539 67.7217 39.0754 67.3315C40.1477 66.3386 40.9325 64.8954 41.3829 63.5122C43.1367 58.1254 41.3787 52.9437 40.2601 47.5807C39.3076 43.0142 38.0838 38.4824 36.1314 34.2309C34.7269 31.1725 32.9623 28.3041 31.3219 25.3722C30.3133 23.5697 29.6174 21.7993 28.1745 20.3152C27.9903 20.1258 27.046 18.9746 27.5645 19.7847C29.1829 22.3135 31.662 24.4766 33.9742 26.3359C36.7992 28.6076 39.4647 30.9688 42.0283 33.5324C43.7922 35.2964 45.5767 36.8326 47.8191 37.9706C50.061 39.1082 52.0527 40.6935 54.6001 41.0119C56.3618 41.2321 58.2611 41.8993 60.0727 41.392C62.4163 40.7358 64.7887 39.8122 66.6504 38.1386C70.9677 34.2574 72.4147 28.1924 72.4147 22.6315C72.4147 16.3557 72.7123 9.83523 71.23 3.69415C71.1022 3.16471 70.8233 1.56697 70.8233 2.11162C70.8233 2.4381 71.1682 2.79969 71.3096 3.07528C71.8257 4.08179 72.4124 5.04164 72.9805 6.01933C76.2308 11.6128 79.1841 17.3449 83.2361 22.4193C84.8847 24.484 86.3862 26.613 87.9748 28.7141C89.0512 30.1378 89.9101 31.6275 91.1929 32.887C92.5469 34.2164 94.3632 34.9397 96.0908 35.5924C96.6727 35.8122 97.6424 36.279 98.195 35.9106" stroke="#4D4D4D" stroke-width="3" stroke-linecap="round"/>
</svg>

<svg xmlns="http://www.w3.org/2000/svg" width="174" height="208" fill="none"><path stroke="#4D4D4D" stroke-linecap="round" stroke-width="3" d="M55.598 72.248v69.827m-2.45-66.764c17.64 0 35.666-1.101 53.288 0 .461.029-.085 2.871-.136 3.335-.698 6.373-.476 12.789-.476 19.192 0 5.903-.014 11.742.476 17.627.35 4.199 1.561 8.218 1.94 12.386.455 5.007-.573 9.922.953 14.802.796 2.549-7.775 1.02-8.984.919-6.898-.575-13.741-1.768-20.655-2.11-6.982-.344-13.909-.612-20.894-.612m-4.287-67.989c.504-5.038 7.762-6.95 9.8-11.025m41.651 11.638c.466-1.554 3.206-2.855 4.287-4.152.947-1.136 2.019-2.154 3.063-3.199m-50.839-3.675h48.389"/><path stroke="#4D4D4D" stroke-linecap="round" stroke-width="3" d="M108.274 143.3c0-1.222-.292-2.879.068-4.05.521-1.693 2.811-3.49 2.994-5.138.361-3.245 3.09-7.084 4.9-9.8"/><path stroke="#4D4D4D" stroke-linecap="round" stroke-width="3" d="M114.399 69.799v52.369c0 1.609 1.372 5.966 2.45 7.044M76.15 110.21c0-3.028.277-5.172 3.002-6.92 3.994-2.563 10.43-2.366 12.128 2.728.754 2.261 1.344 5.797.075 7.962-1.305 2.225-3.148 4.553-5.829 5.06-5.085.96-10.045-5.185-10.045-9.946m1.116-10.715c-.95-2.417-2.989-4.56-4.465-6.697-.807-1.169-1.79-2.239-2.678-3.348m1.116 12.5c-1.405 0-2.645-.112-4.018-.397-2.013-.417-3.906-1.835-6.027-1.835m2.232 13.394c1.48 0 3.516.334 4.91-.224m-2.008 12.948c.142-1.28 3.342-2.647 4.191-3.349.85-.702 1.925-1.469 2.605-2.344.352-.452.47-.954 1.017-1.227m4.688 4.91v4.688m9.375-3.571c.18 1.164 1.074 2.13 1.563 3.174.446.953.91 1.893 1.339 2.853.525 1.173.933 2.574 1.34 3.795m.223-14.51c2.236.248 4.303 2.821 6.25 3.795m-2.679-13.394c2.35 0 4.932.223 7.143.223m-10.491-9.152c1.127-.125 2.838-1.413 3.844-2.009.67-.397 1.463-.876 2.183-1.116m-13.84-13.17v13.17"/><path stroke="#4D4D4D" stroke-linecap="round" stroke-width="3" d="M95.979 39.017c0-1.263.447-2.21 1.194-3.253 1.61-2.248 3.474-4.464 5.271-6.568 3.03-3.55 5.833-7.624 9.121-10.913 1.126-1.125 3.297-2.994 3.665-4.653.336-1.513.809 2.967.844 3.315.346 3.42 1.28 6.799 1.936 10.171.936 4.816.947 9.599.947 14.495 0 5.912 6.85 3.485 10.254 2.306 3.414-1.181 6.464-2.951 9.986-3.973 4.477-1.3 8.887-3.273 13.3-4.839 2.852-1.012 5.648-2.729 8.689-3.109 1.679-.21.139.6-.432 1.256-1.909 2.193-3.684 4.547-5.662 6.671-2.785 2.991-5.795 5.707-8.627 8.648-1.704 1.77-2.444 4.572-4.159 6.382-2.45 2.586-4.077 5.802-4.077 9.266 0 1.873 5.599 3.12 7.021 3.706 4.163 1.714 8.247 3.537 12.374 5.353 2.873 1.264 5.545 1.928 8.751 2.615 1.711.367 3.447.927 5.209.927.773 0 .91.447.124.762-5.353 2.14-10.321 5.45-15.896 7.02-2.675.754-6.455 2.527-8.483 4.448-1.209 1.146-2.232 1.78-2.717 3.418-.564 1.901-.56 4.37-.165 6.3.37 1.808 1.149 2.783 1.935 4.159 1.264 2.212 3.541 4.663 5.189 6.671 4.792 5.84 11.169 8.824 18.695 10.192.554.101 1.005.3 1.503.577.804.446-3.606.18-4.262.185-4.493.035-8.968.371-13.465.371-2.235 0-4.429-.095-6.63.288-3.5.609-8.097 1.087-11.036 3.047m-1.112.371c0 1.733-1.112 3.632-1.112 5.58 0 4.218 2.463 8.344 4.9 11.756 4.09 5.726 9.642 10 14.187 15.278 2.172 2.522 4.863 4.935 7.433 7.062 1.126.933 4.715 2.944 3.253 2.944-2.835 0-6.375-1.542-9.101-2.306-4.236-1.186-8.29-3.028-12.518-4.282-4.398-1.305-11.573-3.258-15.731-.371-3.007 2.089-4.531 3.974-5.209 7.742-1.431 7.947-.927 16.349-.927 24.399 0 4.432 1.853 8.679 1.853 12.992 0 1.343-.026-.682-.205-1.092-1.061-2.424-3.097-4.594-4.407-6.897-1.255-2.208-2.095-4.618-3.335-6.836-1.821-3.258-4.033-6.387-6.136-9.471-2.412-3.537-6.015-5.92-9.265-8.607-2.775-2.294-6.481-3.265-10.007-3.706-4.144-.518-7.37.776-10.83 2.965-6.41 4.055-12.391 6.958-16.76 13.445-4.18 6.206-7.586 12.671-11.118 19.231-.18.334-1.264 1.221-1.318.515-.23-2.979-1.693-5.869-2.224-8.813-1.394-7.74-2.078-16.132-4.9-23.513-1.934-5.058-9.262-5.765-14.001-5.765-3.664 0-6.774.395-10.357 1.112-2.487.497-9.932 1.663-7.577.72 1.575-.629 3.71-3.37 4.962-4.509 2.825-2.568 5.765-5.315 8.236-8.236 3.6-4.254 6.136-9.089 6.218-14.865.095-6.641-4.35-11.423-10.603-12.581-2.593-.48-5.372-.324-8.01-.638-2.786-.332-5.664-.866-8.441-1.029-1.065-.063 2.14-.027 3.191-.206 3.4-.581 6.464-1.953 9.595-3.295 3.194-1.369 6.036-2.664 8.915-4.653 2.693-1.86 4.052-5.783 5.189-8.648 1.32-3.328 1.76-6.619 1.647-10.17-.086-2.692-2.816-5.11-4.448-7.043-2.996-3.548-7.804-6.198-11.51-8.977-1.489-1.117-3.15-1.992-4.611-3.13-.56-.434 1.003 1.15 1.873 1.463 5.714 2.056 12.081.193 16.184-3.974 2.766-2.81 5.932-5.715 8.36-8.813.607-.775 1.082-1.426 1.935-1.853"/><path stroke="#4D4D4D" stroke-linecap="round" stroke-width="3" d="M37.245 68.534c.61 0 1.409-.812 1.83-1.203 1.073-.992 1.857-2.436 2.308-3.819 1.754-5.387-.004-10.568-1.123-15.931-.952-4.567-2.176-9.099-4.129-13.35-1.404-3.059-3.169-5.927-4.81-8.859-1.008-1.802-1.704-3.573-3.147-5.057-.184-.19-1.128-1.34-.61-.53 1.619 2.529 4.098 4.692 6.41 6.55a99.314 99.314 0 0 1 8.054 7.197c1.764 1.764 3.549 3.3 5.791 4.439 2.242 1.137 4.234 2.723 6.781 3.04 1.762.221 3.661.888 5.473.381 2.343-.656 4.716-1.58 6.577-3.253 4.318-3.882 5.765-9.947 5.765-15.508 0-6.275.297-12.796-1.185-18.937-.128-.53-.407-2.127-.407-1.582 0 .326.345.688.487.963.516 1.007 1.102 1.967 1.67 2.944 3.25 5.594 6.204 11.326 10.256 16.4 1.649 2.065 3.15 4.194 4.739 6.295 1.076 1.424 1.935 2.914 3.218 4.173 1.354 1.33 3.17 2.053 4.898 2.705.582.22 1.551.687 2.104.319"/></svg>
